X: 314
T:Et trop penser
N: Derived from Jos2709-Et_trop_penser.krn
C: Josquin des Prez
%%abc-version 2.0
%%abcx-abcm2ps-target-version 5.9.1 (29 Sep 2008)
%%abc-creator hum2abc beta
%%abcx-conversion-date 2019/02/12 16:15:54
%%abc-edited-by Jesse Rodin
%%abc-edited-by Victoria Chang 2012/03/27
%%abcx-initial-encoding-date 2012/03/27/
%%humdrum-veritas 1392572324
%%humdrum-veritas-data 692919513
%%linebreak <none>
%%barnumbers 0
L: 1/4
M: 3/1
Q: 1/2=120
V: 1 clef=treble
V: 2 clef=treble-8
V: 3 clef=bass
K: F
[V:1] z12 | 
[V:2] z12 | 
[V:3] z4z4G,4 | 
[V:1] z4z4G4 | 
[V:2] z12 | 
[V:3] G,4B,8 | 
[V:1] G4B8 | 
[V:2] z4z4G4 | 
[V:3] G,6A,2B,4 | 
[V:1] G8F4 | 
[V:2] G4B8 | 
[V:3] _E,8D,4 | 
[V:1] G4B4c4 | 
[V:2] G8A4 | 
[V:3] _E,6D,2C,4 | 
[V:1] d6c2B4 | 
[V:2] B4d8 | 
[V:3] B,,6C,2D,2_E,2 | 
[V:1] A6G4F2 | 
[V:2] c8B4 | 
[V:3] F,4_E,8 | 
[V:1] F6E2E2D2 | 
[V:2] A4G8 | 
[V:3] F,4C,8 | 
[V:1] F8z4 | 
[V:2] F12 | 
[V:3] C4A,8 | 
[V:1] G4B8 | 
[V:2] z12 | 
[V:3] G,6A,2B,4 | 
[V:1] G8F4 | 
[V:2] G4B8 | 
[V:3] _E,8D,4 | 
[V:1] G4B4c4 | 
[V:2] G8A4 | 
[V:3] _E,6D,2C,4 | 
[V:1] d6c2B4 | 
[V:2] B4d8 | 
[V:3] B,,4B,6G,2 | 
[V:1] c4A6G2 | 
[V:2] c8B4 | 
[V:3] A,6F,2G,4 | 
[V:1] G8^F4 | 
[V:2] G4A8 | 
[V:3] _E,4D,8 | 
[V:1] G8z4 | 
[V:2] G12 | 
[V:3] G,8G,4 | 
[V:1] d8d4 | 
[V:2] z12 | 
[V:3] D,8D,4- | 
[V:1] A8A4- | 
[V:2] d8d4 | 
[V:3] D,2E,2F,6E,2 | 
[V:1] A2B2c4c4 | 
[V:2] A8A4 | 
[V:3] D,4C,8 | 
[V:1] d8c4 | 
[V:2] B4c8 | 
[V:3] B,,4F,6E,2 | 
[V:1] B4A8 | 
[V:2] d8c4 | 
[V:3] D,6E,2F,4 | 
[V:1] G4z4z4 | 
[V:2] B4A8 | 
[V:3] G,8^F,4 | 
[V:1] d8d4 | 
[V:2] G8z4 | 
[V:3] G,8D,4- | 
[V:1] A8A4- | 
[V:2] d8d4 | 
[V:3] D,2E,2F,6E,2 | 
[V:1] A2B2c4c4 | 
[V:2] A8A4 | 
[V:3] D,4C,8 | 
[V:1] d8c4 | 
[V:2] B4c8 | 
[V:3] B,,4F,6E,2 | 
[V:1] B4A6G2 | 
[V:2] d8c4 | 
[V:3] D,6E,2F,4 | 
[V:1] G6^F2F2E2 | 
[V:2] B4A8 | 
[V:3] G,4D,8 | 
[V:1] G8z4 | 
[V:2] G12 | 
[V:3] G,4B,8 | 
[V:1] G4B8 | 
[V:2] z12 | 
[V:3] G,6A,2B,4 | 
[V:1] G8F4 | 
[V:2] G4B8 | 
[V:3] _E,6C,2D,4 | 
[V:1] G4B4c4 | 
[V:2] G8A4 | 
[V:3] _E,6D,2C,4 | 
[V:1] d6c2B4 | 
[V:2] B4d8 | 
[V:3] B,,6C,2D,2_E,2 | 
[V:1] A4G6F2 | 
[V:2] c8B4 | 
[V:3] F,4_E,8 | 
[V:1] F6D2E4 | 
[V:2] A4G8 | 
[V:3] F,4C,8 | 
[V:1] F8z4 | 
[V:2] F12 | 
[V:3] C6B,2A,4 | 
[V:1] G4B8 | 
[V:2] z12 | 
[V:3] G,6A,2B,4 | 
[V:1] G8F4 | 
[V:2] G4B8 | 
[V:3] _E,8D,4 | 
[V:1] G4B4c4 | 
[V:2] G8A4 | 
[V:3] _E,6D,2C,4 | 
[V:1] d6c2B4 | 
[V:2] B4d8 | 
[V:3] B,,4B,6G,2 | 
[V:1] c4A6G2 | 
[V:2] c8B4 | 
[V:3] A,6F,2G,4 | 
[V:1] G8^F4 | 
[V:2] G4A8 | 
[V:3] _E,4D,8 | 
[V:1] G12 |]  
[V:2] G12 |]  
[V:3] G,,12 |]  



